;FLAVOR:Marlin
;TIME:4060
;Filament used: 4.53634m
;Layer height: 0.2
;MINX:80.111
;MINY:55.046
;MINZ:0.3
;MAXX:119.885
;MAXY:144.958
;MAXZ:52.9
;Generated with Cura_SteamEngine 4.4.0
M140 S60
M105
M190 S60
M104 S200
M105
M109 S200
M82 ;absolute extrusion mode
G21 ;metric values
G90 ;absolute positioning
M82 ;set extruder to absolute mode
M107 ;start with the fan off
G28 X0 Y0 ;move X/Y to min endstops
G28 Z0 ;move Z to min endstops
G1 Z15.0 F9000 ;move the platform down 15mm
G92 E0 ;zero the extruded length
G1 F200 E3 ;extrude 3mm of feed stock
G92 E0 ;zero the extruded length again
G1 F9000
;Put printing message on LCD screen
M117 Printing...
G92 E0
G92 E0
G1 F1500 E-6.5
;LAYER_COUNT:264
;LAYER:0
M107
G0 F3600 X84.429 Y62.398 Z0.3
;TYPE:SKIRT
G1 F1500 E0
G1 F1800 X84.579 Y62.215 E0.01181
G1 X84.844 Y61.931 E0.03118
G1 X87.985 Y58.979 E0.24623
G1 X88.368 Y58.674 E0.27066
G1 X88.619 Y58.523 E0.28527
G1 X92.525 Y56.422 E0.50655
G1 X92.973 Y56.226 E0.53094
G1 X93.257 Y56.144 E0.54569
G1 X97.575 Y55.125 E0.76704
G1 X98.059 Y55.052 E0.79146
G1 X98.355 Y55.046 E0.80623
G1 X102.792 Y55.181 E1.02769
G1 X103.279 Y55.236 E1.05214
G1 X103.564 Y55.307 E1.0668
G1 X107.811 Y56.582 E1.28802
G1 X108.266 Y56.76 E1.3124
G1 X108.526 Y56.903 E1.3272
G1 X112.299 Y59.236 E1.54852
G1 X112.693 Y59.527 E1.57295
G1 X112.905 Y59.731 E1.58763
G1 X115.951 Y62.966 E1.80931
G1 X116.257 Y63.349 E1.83377
G1 X116.409 Y63.602 E1.84849
G1 X118.509 Y67.508 E2.06974
G1 X118.705 Y67.957 E2.09418
G1 X118.787 Y68.24 E2.10888
G1 X119.806 Y72.557 E2.33018
G1 X119.879 Y73.041 E2.3546
G1 X119.885 Y73.332 E2.36912
G1 X119.838 Y74.971 E2.45092
G1 X119.836 Y77.161 E2.56018
G1 X119.836 Y141.822 E5.78613
G1 X119.796 Y142.31 E5.81056
G1 X119.677 Y142.785 E5.83499
G1 X119.483 Y143.234 E5.85939
G1 X119.218 Y143.646 E5.88383
G1 X118.948 Y143.952 E5.90419
G1 X118.831 Y144.068 E5.91241
G1 X118.457 Y144.384 E5.93684
G1 X118.036 Y144.634 E5.96127
G1 X117.58 Y144.812 E5.98569
G1 X117.101 Y144.914 E6.01012
G1 X116.721 Y144.938 E6.02912
G1 X83.23 Y144.958 E7.69999
G1 X82.742 Y144.918 E7.72442
G1 X82.267 Y144.8 E7.74884
G1 X81.818 Y144.606 E7.77324
G1 X81.406 Y144.341 E7.79768
G1 X81.107 Y144.079 E7.81751
G1 X80.99 Y143.962 E7.82577
G1 X80.673 Y143.589 E7.85019
G1 X80.421 Y143.169 E7.87463
G1 X80.241 Y142.714 E7.89904
G1 X80.137 Y142.236 E7.92344
G1 X80.111 Y141.841 E7.94319
G1 X80.111 Y75.38 E11.25895
G1 X80.112 Y75.301 E11.26289
G1 X80.193 Y72.224 E11.41645
G1 X80.246 Y71.737 E11.44089
G1 X80.316 Y71.451 E11.45558
G1 X81.596 Y67.132 E11.68032
G1 X81.773 Y66.675 E11.70477
G1 X81.92 Y66.407 E11.72002
G1 X84.197 Y62.723 E11.93609
G1 X84.429 Y62.398 E11.95601
G0 F3600 X84.738 Y62.652
G1 F1800 X84.888 Y62.469 E11.96782
G1 X85.118 Y62.222 E11.98466
G1 X88.259 Y59.27 E12.19971
G1 X88.808 Y58.875 E12.23345
G1 X92.714 Y56.774 E12.45472
G1 X93.349 Y56.534 E12.48859
G1 X97.667 Y55.515 E12.70993
G1 X98.343 Y55.446 E12.74383
G1 X102.78 Y55.581 E12.9653
G1 X103.449 Y55.69 E12.99912
G1 X107.696 Y56.965 E13.22034
G1 X108.315 Y57.244 E13.25422
G1 X112.088 Y59.577 E13.47553
G1 X112.614 Y60.006 E13.50939
G1 X115.66 Y63.241 E13.73107
G1 X116.057 Y63.792 E13.76496
G1 X118.157 Y67.698 E13.9862
G1 X118.397 Y68.332 E14.02003
G1 X119.416 Y72.649 E14.24132
G1 X119.485 Y73.321 E14.27502
G1 X119.438 Y74.959 E14.35678
G1 X119.436 Y77.16 E14.46658
G1 X119.436 Y141.822 E17.69259
G1 X119.396 Y142.276 E17.71532
G1 X119.278 Y142.716 E17.73805
G1 X119.084 Y143.128 E17.76077
G1 X118.821 Y143.501 E17.78354
G1 X118.667 Y143.668 E17.79487
G1 X118.55 Y143.784 E17.80309
G1 X118.199 Y144.076 E17.82587
G1 X117.803 Y144.301 E17.84859
G1 X117.374 Y144.454 E17.87132
G1 X116.721 Y144.538 E17.90416
G1 X83.23 Y144.558 E19.57504
G1 X82.776 Y144.518 E19.59778
G1 X82.336 Y144.4 E19.6205
G1 X81.923 Y144.207 E19.64325
G1 X81.39 Y143.796 E19.67683
G1 X81.273 Y143.679 E19.68508
G1 X80.98 Y143.33 E19.70781
G1 X80.753 Y142.935 E19.73054
G1 X80.598 Y142.507 E19.75325
G1 X80.511 Y141.841 E19.78676
G1 X80.511 Y75.38 E23.10252
G1 X80.512 Y75.312 E23.10591
G1 X80.593 Y72.235 E23.25947
G1 X80.699 Y71.564 E23.29337
G1 X81.979 Y67.245 E23.51811
G1 X82.146 Y66.821 E23.54084
G1 X82.26 Y66.617 E23.5525
G1 X84.537 Y62.933 E23.76857
G1 X84.738 Y62.652 E23.7858
G0 F3600 X85.048 Y62.905
G1 F1800 X85.198 Y62.722 E23.79761
G1 X85.392 Y62.514 E23.8118
G1 X88.533 Y59.562 E24.02685
G1 X88.998 Y59.228 E24.05541
G1 X92.904 Y57.127 E24.27669
G1 X93.441 Y56.923 E24.30535
G1 X97.759 Y55.904 E24.52669
G1 X98.331 Y55.846 E24.55537
G1 X102.768 Y55.981 E24.77684
G1 X103.334 Y56.073 E24.80545
G1 X107.581 Y57.348 E25.02667
G1 X108.105 Y57.584 E25.05534
G1 X111.878 Y59.917 E25.27666
G1 X112.323 Y60.28 E25.30531
G1 X115.369 Y63.515 E25.52699
G1 X115.705 Y63.981 E25.55565
G1 X117.805 Y67.887 E25.7769
G1 X118.008 Y68.424 E25.80554
G1 X119.027 Y72.741 E26.02684
G1 X119.085 Y73.309 E26.05532
G1 X119.038 Y74.947 E26.13708
G1 X119.036 Y77.16 E26.24748
G1 X119.036 Y141.822 E29.47348
G1 X118.996 Y142.239 E29.49438
G1 X118.878 Y142.641 E29.51528
G1 X118.685 Y143.013 E29.53619
G1 X118.385 Y143.384 E29.56
G1 X118.268 Y143.5 E29.56822
G1 X117.944 Y143.766 E29.58913
G1 X117.575 Y143.965 E29.61005
G1 X117.175 Y144.09 E29.63095
G1 X116.72 Y144.138 E29.65378
G1 X83.229 Y144.158 E31.32465
G1 X82.812 Y144.118 E31.34555
G1 X82.41 Y144 E31.36645
G1 X82.038 Y143.808 E31.38734
G1 X81.672 Y143.514 E31.41076
G1 X81.555 Y143.397 E31.41902
G1 X81.289 Y143.073 E31.43993
G1 X81.088 Y142.706 E31.46081
G1 X80.961 Y142.306 E31.48174
G1 X80.911 Y141.841 E31.50508
G1 X80.911 Y75.38 E34.82083
G1 X80.912 Y75.322 E34.82372
G1 X80.993 Y72.245 E34.97729
G1 X81.083 Y71.678 E35.00593
G1 X82.363 Y67.359 E35.23067
G1 X82.601 Y66.827 E35.25975
G1 X84.878 Y63.143 E35.47582
G1 X85.048 Y62.905 E35.49041
G0 F3600 X85.357 Y63.159
G1 F1800 X85.507 Y62.976 E35.50221
G1 X85.666 Y62.805 E35.51386
G1 X88.807 Y59.853 E35.72891
G1 X89.187 Y59.58 E35.75226
G1 X93.093 Y57.479 E35.97353
G1 X93.533 Y57.312 E35.99701
G1 X97.851 Y56.293 E36.21835
G1 X98.319 Y56.246 E36.24182
G1 X102.756 Y56.381 E36.46328
G1 X103.219 Y56.456 E36.48668
G1 X107.466 Y57.731 E36.70791
G1 X107.895 Y57.924 E36.73138
G1 X111.668 Y60.257 E36.95269
G1 X112.031 Y60.554 E36.97609
G1 X115.077 Y63.789 E37.19777
G1 X115.352 Y64.171 E37.22126
G1 X117.452 Y68.077 E37.4425
G1 X117.619 Y68.515 E37.46589
G1 X118.638 Y72.832 E37.68719
G1 X118.685 Y73.298 E37.71055
G1 X118.638 Y74.92 E37.79151
G1 X118.636 Y77.16 E37.90326
G1 X118.636 Y141.822 E41.12926
G1 X118.596 Y142.199 E41.14818
G1 X118.478 Y142.559 E41.16708
G1 X118.288 Y142.886 E41.18595
G1 X118.103 Y143.1 E41.20006
G1 X117.986 Y143.216 E41.20828
G1 X117.691 Y143.453 E41.22716
G1 X117.352 Y143.623 E41.24608
G1 X116.985 Y143.718 E41.26499
G1 X116.72 Y143.738 E41.27825
G1 X83.229 Y143.758 E42.94912
G1 X82.852 Y143.718 E42.96804
G1 X82.492 Y143.601 E42.98692
G1 X82.164 Y143.41 E43.00586
G1 X81.955 Y143.231 E43.01959
G1 X81.838 Y143.114 E43.02784
G1 X81.6 Y142.819 E43.04675
G1 X81.429 Y142.481 E43.06565
G1 X81.332 Y142.115 E43.08454
G1 X81.311 Y141.841 E43.09825
G1 X81.311 Y75.38 E46.414
G1 X81.312 Y75.333 E46.41635
G1 X81.393 Y72.256 E46.56991
G1 X81.466 Y71.792 E46.59335
G1 X82.746 Y67.473 E46.81809
G1 X82.941 Y67.038 E46.84187
G1 X85.218 Y63.354 E47.05794
G1 X85.357 Y63.159 E47.06989
G0 F3600 X85.666 Y63.413
G1 F1800 X85.816 Y63.23 E47.08169
G1 X85.94 Y63.097 E47.09076
G1 X89.081 Y60.145 E47.30581
G1 X89.377 Y59.932 E47.32401
G1 X93.283 Y57.831 E47.54528
G1 X93.624 Y57.701 E47.56349
G1 X97.942 Y56.682 E47.78483
G1 X98.307 Y56.646 E47.80313
G1 X102.744 Y56.781 E48.02459
G1 X103.104 Y56.839 E48.04279
G1 X107.351 Y58.114 E48.26401
G1 X107.684 Y58.264 E48.28223
G1 X111.457 Y60.597 E48.50355
G1 X111.74 Y60.828 E48.52177
G1 X114.786 Y64.063 E48.74345
G1 X115 Y64.36 E48.76172
G1 X117.1 Y68.266 E48.98297
G1 X117.23 Y68.607 E49.00117
G1 X118.249 Y72.924 E49.22247
G1 X118.285 Y73.286 E49.24062
G1 X118.238 Y74.919 E49.32212
G1 X118.236 Y77.159 E49.43388
G1 X118.236 Y141.822 E52.65993
G1 X118.196 Y142.154 E52.67661
G1 X118.079 Y142.466 E52.69323
G1 X117.822 Y142.816 E52.7149
G1 X117.705 Y142.932 E52.72312
G1 X117.441 Y143.137 E52.73979
G1 X117.136 Y143.274 E52.75647
G1 X116.72 Y143.338 E52.77747
G1 X83.229 Y143.358 E54.44834
G1 X82.897 Y143.318 E54.46503
G1 X82.584 Y143.201 E54.4817
G1 X82.238 Y142.948 E54.50308
G1 X82.121 Y142.831 E54.51134
G1 X81.915 Y142.568 E54.52801
G1 X81.776 Y142.264 E54.54468
G1 X81.711 Y141.841 E54.56603
G1 X81.711 Y75.343 E57.88363
G1 X81.792 Y72.266 E58.0372
G1 X81.85 Y71.905 E58.05544
G1 X83.13 Y67.586 E58.28018
G1 X83.281 Y67.248 E58.29865
G1 X85.558 Y63.564 E58.51472
G1 X85.666 Y63.413 E58.52398
G0 F3600 X85.976 Y63.666
G1 F1800 X86.126 Y63.483 E58.53578
G1 X86.214 Y63.388 E58.54224
G1 X89.355 Y60.436 E58.75729
G1 X89.566 Y60.284 E58.77027
G1 X93.472 Y58.183 E58.99154
G1 X93.716 Y58.091 E59.00455
G1 X98.034 Y57.072 E59.22589
G1 X98.294 Y57.045 E59.23894
G1 X102.731 Y57.18 E59.4604
G1 X102.989 Y57.222 E59.47344
G1 X107.236 Y58.497 E59.69467
G1 X107.474 Y58.604 E59.70769
G1 X111.247 Y60.937 E59.929
G1 X111.449 Y61.102 E59.94201
G1 X114.495 Y64.337 E60.16369
G1 X114.648 Y64.549 E60.17674
G1 X116.748 Y68.455 E60.39799
G1 X116.84 Y68.699 E60.411
G1 X117.859 Y73.016 E60.63229
G1 X117.886 Y73.275 E60.64528
G1 X117.838 Y74.947 E60.72873
G1 X117.836 Y77.159 E60.83909
G1 X117.836 Y141.823 E64.06519
G1 X117.796 Y142.102 E64.07925
G1 X117.679 Y142.359 E64.09334
G1 X117.54 Y142.532 E64.10441
G1 X117.423 Y142.648 E64.11263
G1 X117.197 Y142.817 E64.12671
G1 X116.932 Y142.915 E64.14081
G1 X116.72 Y142.938 E64.15145
G1 X83.229 Y142.958 E65.82232
G1 X82.949 Y142.918 E65.83643
G1 X82.692 Y142.802 E65.8505
G1 X82.521 Y142.665 E65.86143
G1 X82.404 Y142.548 E65.86968
G1 X82.235 Y142.322 E65.88376
G1 X82.135 Y142.058 E65.89785
G1 X82.111 Y141.841 E65.90874
G1 X82.111 Y75.354 E69.22579
G1 X82.192 Y72.277 E69.37935
G1 X82.233 Y72.019 E69.39239
G1 X83.513 Y67.7 E69.61713
G1 X83.621 Y67.458 E69.63035
G1 X85.898 Y63.774 E69.84642
G1 X85.976 Y63.666 E69.85306
G0 F3600 X86.285 Y63.92
G1 F1800 X86.435 Y63.737 E69.86487
G1 X86.488 Y63.68 E69.86875
G1 X89.629 Y60.728 E70.0838
G1 X89.756 Y60.637 E70.0916
G1 X93.662 Y58.536 E70.31287
G1 X93.808 Y58.48 E70.32067
G1 X98.126 Y57.461 E70.54201
G1 X98.282 Y57.445 E70.54984
G1 X102.719 Y57.58 E70.7713
G1 X102.874 Y57.605 E70.77914
G1 X107.121 Y58.88 E71.00036
G1 X107.264 Y58.945 E71.0082
G1 X111.037 Y61.278 E71.22951
G1 X111.158 Y61.377 E71.23731
G1 X114.204 Y64.612 E71.45899
G1 X114.295 Y64.739 E71.46679
G1 X116.395 Y68.645 E71.68804
G1 X116.451 Y68.791 E71.69584
G1 X117.47 Y73.108 E71.91713
G1 X117.486 Y73.263 E71.92491
G1 X117.438 Y74.935 E72.00836
G1 X117.436 Y77.159 E72.11931
G1 X117.436 Y141.823 E75.34541
G1 X117.396 Y142.037 E75.35628
G1 X117.258 Y142.248 E75.36885
G1 X117.141 Y142.364 E75.37707
G1 X116.961 Y142.487 E75.38795
G1 X116.719 Y142.538 E75.40029
G1 X83.228 Y142.558 E77.07116
G1 X83.014 Y142.518 E77.08202
G1 X82.804 Y142.382 E77.09451
G1 X82.687 Y142.265 E77.10276
G1 X82.563 Y142.086 E77.11362
G1 X82.511 Y141.841 E77.12612
G1 X82.511 Y75.364 E80.44267
G1 X82.592 Y72.287 E80.59624
G1 X82.617 Y72.133 E80.60402
G1 X83.897 Y67.814 E80.82876
G1 X83.962 Y67.669 E80.83669
G1 X86.239 Y63.985 E81.05276
G1 X86.285 Y63.92 E81.05673
G0 F3600 X86.594 Y64.173
G1 F1800 X86.744 Y63.99 E81.06853
G1 X86.762 Y63.971 E81.06984
G1 X89.903 Y61.019 E81.28489
G1 X89.945 Y60.989 E81.28746
G1 X93.851 Y58.888 E81.50874
G1 X93.9 Y58.869 E81.51136
G1 X98.218 Y57.85 E81.7327
G1 X98.27 Y57.845 E81.73531
G1 X102.707 Y57.98 E81.95677
G1 X102.759 Y57.988 E81.9594
G1 X107.006 Y59.263 E82.18063
G1 X107.053 Y59.285 E82.18321
G1 X110.826 Y61.618 E82.40453
G1 X110.867 Y61.651 E82.40716
G1 X113.913 Y64.886 E82.62883
G1 X113.943 Y64.928 E82.63141
G1 X116.043 Y68.834 E82.85266
G1 X116.062 Y68.883 E82.85528
G1 X117.081 Y73.2 E83.07658
G1 X117.086 Y73.252 E83.07918
G1 X117.038 Y74.924 E83.16263
G1 X117.036 Y77.158 E83.27409
G1 X117.036 Y141.822 E86.50019
G1 X116.977 Y141.964 E86.50786
G1 X116.86 Y142.08 E86.51608
G1 X116.719 Y142.138 E86.52369
G1 X83.228 Y142.158 E88.19456
G1 X83.087 Y142.099 E88.20218
G1 X82.97 Y141.982 E88.21044
G1 X82.911 Y141.841 E88.21806
G1 X82.911 Y75.375 E91.53407
G1 X82.992 Y72.298 E91.68763
G1 X83 Y72.246 E91.69026
G1 X84.28 Y67.927 E91.915
G1 X84.302 Y67.879 E91.91763
G1 X86.579 Y64.195 E92.1337
G1 X86.594 Y64.173 E92.13503
G1 F1500 E85.63503
G0 F3600 X86.196 Y63.928
G0 X89.601 Y66.97
;TYPE:SUPPORT
G1 F1500 E92.13503
G1 F1800 X92.026 Y64.554 E92.30581
G1 X94.988 Y62.851 E92.47627
G1 X98.29 Y61.974 E92.64672
G1 X101.71 Y61.981 E92.81734
G1 X105.014 Y62.873 E92.98808
G1 X107.853 Y64.521 E93.15185
G1 X108.05 Y64.673 E93.16426
G1 X110.377 Y67.01 E93.3288
G1 X112.074 Y69.965 E93.49881
G1 X112.957 Y73.369 E93.67425
G1 X112.95 Y76.694 E93.84014
G1 X112.058 Y79.998 E94.01088
G1 X110.347 Y82.945 E94.18089
G1 X107.921 Y85.361 E94.3517
G1 X104.959 Y87.064 E94.52216
G1 X101.657 Y87.942 E94.69262
G1 X98.237 Y87.934 E94.86325
G1 X94.934 Y87.043 E95.03393
G1 X92.094 Y85.394 E95.19777
G1 X91.897 Y85.242 E95.21018
G1 X89.57 Y82.905 E95.37472
G1 X87.872 Y79.95 E95.54475
G1 X86.991 Y76.547 E95.72012
G1 X86.997 Y73.221 E95.88606
G1 X87.89 Y69.917 E96.05681
G1 X89.601 Y66.97 E96.22682
G0 F3600 X90.517 Y66.476
G1 F1800 X88.652 Y69.209 E96.39189
G1 X87.545 Y72.35 E96.55804
G1 X87.295 Y75.598 E96.72057
G1 X87.901 Y78.903 E96.8882
G1 X89.334 Y81.891 E97.05353
G1 X91.491 Y84.411 E97.21902
G1 X94.222 Y86.279 E97.38409
G1 X97.374 Y87.386 E97.55076
G1 X100.644 Y87.641 E97.7144
G1 X103.938 Y87.022 E97.88162
G1 X106.915 Y85.597 E98.04628
G1 X109.43 Y83.44 E98.21158
G1 X111.296 Y80.715 E98.37635
G1 X112.403 Y77.551 E98.54358
G1 X112.652 Y74.317 E98.70541
G1 X112.046 Y71.009 E98.87319
G1 X110.616 Y68.027 E99.03818
G1 X108.451 Y65.496 E99.20435
G1 X105.727 Y63.635 E99.36894
G1 X102.575 Y62.529 E99.53559
G1 X99.306 Y62.278 E99.69916
G1 X96.016 Y62.896 E99.86617
G1 X93.029 Y64.326 E100.03139
G1 X90.517 Y66.476 E100.19635
G0 F3600 X88.011 Y70.081
G1 F1800 X88.011 Y70.547 E100.2196
G0 F3600 X87.453 Y77.343
G1 F1800 X87.363 Y77.343 E100.22409
G0 F3600 X88.011 Y79.503
G1 F1800 X88.011 Y79.844 E100.2411
G0 F3600 X88.091 Y80.01
G1 F1800 X88.255 Y80.01 E100.24928
G0 F3600 X89.623 Y82.677
G1 F1800 X89.797 Y82.677 E100.25797
G0 F3600 X92.326 Y85.344
G1 F1800 X92.572 Y85.344 E100.27024
G0 F3600 X96.012 Y87.078
G1 F1800 X96.012 Y87.168 E100.27473
G0 F3600 X98.679 Y87.648
G1 F1800 X98.679 Y87.774 E100.28101
G0 F3600 X101.346 Y87.781
G1 F1800 X101.346 Y87.671 E100.2865
G0 F3600 X107.456 Y85.344
G1 F1800 X107.63 Y85.344 E100.29518
G0 F3600 X110.147 Y82.677
G1 F1800 X110.318 Y82.677 E100.30371
G0 F3600 X111.712 Y80.01
G1 F1800 X111.866 Y80.01 E100.3114
G0 F3600 X112.014 Y79.549
G1 F1800 X112.014 Y79.146 E100.3315
G0 F3600 X111.532 Y69.342
G1 F1800 X111.423 Y69.342 E100.33694
G0 F3600 X109.818 Y66.675
G1 F1800 X109.669 Y66.675 E100.34438
G0 F3600 X104.013 Y62.864
G1 F1800 X104.013 Y62.769 E100.34912
G0 F3600 X101.346 Y62.274
G1 F1800 X101.346 Y62.141 E100.35575
G0 F3600 X98.679 Y62.135
G1 F1800 X98.679 Y62.234 E100.36069
G1 F1500 E93.86069
;MESH:ring-test.stl
G0 F3600 X86.755 Y76.579
G0 X85.491 Y76.741
G0 X86.409 Y80.613
G0 X86.842 Y80.365
;TYPE:WALL-OUTER
G1 F1500 E100.36069
G1 F1800 X88.689 Y83.579 E100.54563
G1 X91.166 Y86.067 E100.72078
G1 X91.474 Y86.305 E100.7402
G1 X94.511 Y88.067 E100.91537
G1 X98.091 Y89.034 E101.10038
G1 X101.798 Y89.042 E101.28532
G1 X105.381 Y88.09 E101.47028
G1 X108.595 Y86.242 E101.65525
G1 X111.223 Y83.626 E101.84024
